Yaru++/status/symbolic/media-playlist-repeat-song-symbolic-rtl.svg

<svg height="16" width="16" xmlns="http://www.w3.org/2000/svg">
  <g fill="#808080">
    <path d="m11 0v2h1.006c1.258.015 2.179-.03 2.932.385.376.207.673.56.837.998.165.438.225.96.225 1.617v6c0 .658-.06 1.179-.225 1.617a1.88 1.88 0 0 1 -.838.998c-.752.416-1.673.37-2.931.385h-8.012c-1.258-.015-2.179.03-2.932-.385a1.88 1.88 0 0 1 -.838-.998c-.164-.437-.224-.96-.224-1.617v-6c0-.658.06-1.179.225-1.617a1.88 1.88 0 0 1 .838-.998c.752-.416 1.673-.37 2.931-.385h1.006v1h-1c-1.259.015-2.087.06-2.453.262-.184.1-.29.212-.387.472s-.16.674-.16 1.266v6c0 .592.063 1.006.16 1.266.098.26.203.371.387.472.366.202 1.194.247 2.453.262h8c1.259-.015 2.09-.06 2.455-.262.184-.1.287-.212.385-.472.097-.26.16-.674.16-1.266v-6c0-.592-.063-1.006-.16-1.266-.098-.26-.202-.371-.385-.472-.365-.202-1.195-.247-2.455-.262h-1.002v2a36.954 36.954 0 0 1 -2.322-1.166c-.781-.43-1.533-.876-2.258-1.334.725-.45 1.477-.89 2.258-1.32.788-.43 1.563-.823 2.324-1.18z"/>
    <path d="m6.117 6.247c.167-.07.34-.147.52-.234.184-.092.363-.19.536-.294a8.2 8.2 0 0 0 .494-.338c.161-.121.306-.248.433-.381h.9v6h-1v-4.652c-.448.347-1.012.566-1.494.762z"/>
  </g>
</svg>

<svg height="16" width="16" xmlns="http://www.w3.org/2000/svg">
    <g fill="gray">
        <path d="M11 0v2h1.006c1.258.015 2.179-.03 2.932.385.376.207.673.56.837.998.165.438.225.96.225 1.617v6c0 .658-.06 1.179-.225 1.617a1.88 1.88 0 01-.838.998c-.752.416-1.673.37-2.931.385H3.994c-1.258-.015-2.179.03-2.932-.385a1.88 1.88 0 01-.838-.998C.06 12.18 0 11.657 0 11V5c0-.658.06-1.179.225-1.617a1.88 1.88 0 01.838-.998c.752-.416 1.673-.37 2.931-.385H5v1H4c-1.259.015-2.087.06-2.453.262-.184.1-.29.212-.387.472C1.063 3.994 1 4.408 1 5v6c0 .592.063 1.006.16 1.266.098.26.203.371.387.472.366.202 1.194.247 2.453.262h8c1.259-.015 2.09-.06 2.455-.262.184-.1.287-.212.385-.472.097-.26.16-.674.16-1.266V5c0-.592-.063-1.006-.16-1.266-.098-.26-.202-.371-.385-.472C14.09 3.06 13.26 3.015 12 3h-1.002v2a36.954 36.954 0 01-2.322-1.166A43.6 43.6 0 016.418 2.5c.725-.45 1.477-.89 2.258-1.32C9.464.75 10.239.357 11 0z" style="line-height:normal;font-variant-ligatures:normal;font-variant-position:normal;font-variant-caps:normal;font-variant-numeric:normal;font-variant-alternates:normal;font-feature-settings:normal;text-indent:0;text-align:start;text-decoration-line:none;text-decoration-style:solid;text-decoration-color:#000;text-transform:none;text-orientation:mixed;shape-padding:0;isolation:auto;mix-blend-mode:normal;marker:none" color="#000" font-weight="400" font-family="sans-serif" overflow="visible"/>
        <path d="M6.117 6.247c.167-.07.34-.147.52-.234.184-.092.363-.19.536-.294a8.2 8.2 0 00.494-.338c.161-.121.306-.248.433-.381H9v6H8V6.348c-.448.347-1.012.566-1.494.762z" style="line-height:1000%;-inkscape-font-specification:Ubuntu;text-align:center" font-weight="700" font-family="Ubuntu" letter-spacing="0" word-spacing="0" text-anchor="middle"/>
    </g>
</svg>
